X:1
T:Title
%%score { ( 1 4 ) | ( 2 3 ) }
L:1/8
M:4/4
K:F
V:1 treble nm="Grand Piano"
V:4 treble 
V:2 bass 
V:3 bass 
V:1
 z4 z2[Q:1/4=100] A2 | A3 A B2 A2 | [EA]2 [EG]4 [EG][EA] | [EB]2 BB c2 B2 |[M:3/4] A6 |[M:1/4] AA | %6
[M:4/4] A A2 A B2 BB | z4 z2 z d | c2 BA B2 [EB]2 |[M:3/4] A6 |[M:6/8][Q:1/4=87] z3 z .c2 | %11
 AAG- G3 | GGA B [Ec]2 |[M:5/8] BA- A3- |[M:1/8] A | A |[M:3/4] AA AB BB | =B2 [GB] [Gc]2 [Fd] | %18
 z2 z A z2 |[M:5/8] F-F- F3 |] %20
V:2
 z4 z2 [F,CF]2 | [F,CF]3 [F,CF] [F,DF]2 [F,CF]2 | [C,B,]2 [C,B,]4 [C,B,][C,B,] | %3
 [C,G,]2 [G,CE][G,CE] [G,B,E]2 [E,G,C]2 |[M:3/4] [F,C]6 |[M:1/4] [F,CF][F,CF] | %6
[M:4/4] .E2 z2[K:treble] z4 | [A,CF]2 [A,C_E]2 [B,D]3 .[B,D] | %8
 [A,CF]2[K:bass] [F,CF][F,C_E] [G,B,D]2 [C,C]2 |[M:3/4] [F,CF]6 | %10
[M:6/8] [F,A,F][F,A,F][F,CF] [F,A,F] [D,D]2 | [^F,CD][=F,=B,D][F,B,D]- [F,B,D]3 | %12
 [F,=B,D][E,_B,C][E,B,C] [E,G,C] [C,B,]2 |[M:5/8] [E,G,C][F,C]- [F,C]3- |[M:1/8] [F,C] | [F,C_E] | %16
[M:3/4] [^F,C_E][F,CD] [F,CD][K:treble][G,B,D] [G,B,D][G,DG] | %17
 [G,DG]2[K:bass] [F,D] [E,C]2 [G,=B,] | [C,B,]2 [C,G,] [C,C]2 [C,B,C] | %19
[M:5/8] [F,A,C]-[F,A,C]- [F,A,C]3 |] %20
V:3
 x8 | x8 | x8 | x8 |[M:3/4] x6 |[M:1/4] x2 | %6
[M:4/4] [A,^C]- [A,CE]2[K:treble] [A,CE] [G,CE]2 [F,DF][F,CF] | x8 | x2[K:bass] x6 |[M:3/4] x6 | %10
[M:6/8] x6 | x6 | x6 |[M:5/8] x5 |[M:1/8] x | x |[M:3/4] x3[K:treble] x3 | x2[K:bass] x4 | x6 | %19
[M:5/8] x5 |] %20
V:4
 x8 | x8 | x8 | x8 |[M:3/4] x6 |[M:1/4] x2 |[M:4/4] x8 | c2 c2 d3 z/ B,/ | x8 |[M:3/4] x6 | %10
[M:6/8] ccA c^F-[FA] | x6 | x6 |[M:5/8] x5 |[M:1/8] x | x |[M:3/4] x6 | x6 | %18
 [Ed]>[Ec] [EB]E- [EB]E |[M:5/8] x5 |] %20

